X:1
T:Topeka, 87.87 D
T:Ira David Sankey, 1899
T:Topeka, 87.87 D
T:Public Domain
C:Ira David Sankey, 1899
Z:Public Domain
%%score 1 ( 2 3 )
L:1/8
M:3/4
K:Bb
V:1 treble 
V:2 bass 
V:3 bass 
V:1
 [B,D]>[CE] | [DF]3 [Fd] [Fc][FB] | [EG] [GB]3 [FA][EG] | [DF]3 [FB] [EA][DB] | [Fc]4 [B,D]>[CE] | %5
 [DF]3 [Fd] [Fc][FB] | [EG] [GB]3 [FA][EG] | [DF]3 [DG] [EB][EA] | [DB]4 [EA]>[DB] | %9
 [Ec]3 [EF] [EG][EF] | [DF] [DB]3 [FB][Fc] | [Fd]3 [Fd] [Fc][=EB] | [Fc]4 [Fd]>[Fc] | %13
 [FB]3 [FA] [Gc][GB] | [EG] [EB]3 [FA][EG] [DF]3 [DB][Ec]>[DB] | [DB]4 x2 |] x4 |] %17
V:2
 [B,,F,]>[B,,F,] | [B,,B,]3 [B,,B,] [C,A,][D,B,] | [E,B,] [E,B,]3 [E,B,][E,B,] | %3
 [B,,B,]3 [D,B,] [C,F,][B,,F,] | [F,A,]4 B,>B, | B,3 [B,,B,] [C,A,][D,B,] | %6
 [E,B,] [E,B,]3 [E,B,][E,B,] | [F,B,]3 [F,B,] [F,C]F, | [B,,F,]4 [F,C]>[F,B,] | %9
 [F,A,]3 [F,A,] [F,B,][F,A,] | [B,,B,] [B,,F,]3 [B,,B,][F,A,] | B,3 B, [A,C][G,C] | %12
 [F,A,]4 [B,,B,]>[C,A,] | [D,B,]3 [D,B,] [E,B,][E,B,] | [E,B,] [E,G,]3 [E,B,][E,B,] x6 | %15
 [F,B,]3 F, [F,,A,]>[B,,B,] |] [B,,F,]4 |] %17
V:3
 x2 | x6 | x6 | x6 | x4 B,>B, | B,3 x3 | x6 | x5 F, | x6 | x6 | x6 | B,3 B, x2 | x6 | x6 | x12 | %15
 x3 F, x2 |] x4 |] %17

